lib/svgs/users.svg

<?xml version="1.0" encoding="UTF-8"?>
<svg width="16px" height="16px" viewBox="0 0 16 16" version="1.1" xmlns="http://www.w3.org/2000/svg" xmlns:xlink="http://www.w3.org/1999/xlink">
    <!-- Generator: sketchtool 51.3 (57544) - http://www.bohemiancoding.com/sketch -->
    <title>user/users</title>
    <desc>Created with sketchtool.</desc>
    <defs></defs>
    <g id="Icons" stroke="none" stroke-width="1" fill="none" fill-rule="evenodd">
        <g id="Web" transform="translate(-291.000000, -2248.000000)" fill="#000000">
            <g id="user/users" transform="translate(291.000000, 2248.000000)">
                <path d="M12.2755007,15.9135 C11.9965007,15.9135 11.7465007,15.7175 11.6885007,15.4345 L11.2095007,13.1025 C11.1255007,12.9675 10.9975007,12.8635 10.8455007,12.8095 L7.87450073,11.7505 C7.35550073,11.5655 7.00550073,11.0705 7.00550073,10.5185 L7.00550073,10.0935 C7.00550073,9.5005 7.26750073,8.9435 7.72450073,8.5645 C8.18950073,8.1795 8.45650073,7.6185 8.45650073,7.0265 L8.45650073,5.7805 C8.45650073,4.6675 7.55050073,3.7625 6.43850073,3.7625 C5.32550073,3.7625 4.42050073,4.6675 4.42050073,5.7805 L4.42050073,7.0265 C4.42050073,7.6215 4.68850073,8.1835 5.15650073,8.5695 C5.61050073,8.9435 5.87150073,9.4965 5.87150073,10.0845 L5.87150073,10.5175 C5.87150073,11.0695 5.52250073,11.5645 5.00350073,11.7505 L2.03050073,12.8095 C1.87850073,12.8635 1.75150073,12.9675 1.66650073,13.1025 L1.18850073,15.4345 C1.12150073,15.7585 0.805500733,15.9655 0.479500733,15.9005 C0.154500733,15.8345 -0.0544992674,15.5175 0.0125007326,15.1915 L0.509500733,12.7725 C0.520500733,12.7225 0.537500733,12.6735 0.560500733,12.6265 C0.781500733,12.1815 1.16150073,11.8455 1.62850073,11.6795 L4.59950073,10.6205 C4.64250073,10.6045 4.67150073,10.5635 4.67150073,10.5175 L4.67150073,10.0845 C4.67150073,9.8555 4.56950073,9.6415 4.39250073,9.4955 C3.64750073,8.8795 3.21950073,7.9805 3.21950073,7.0265 L3.21950073,5.7805 C3.21950073,4.0065 4.66350073,2.5625 6.43850073,2.5625 C8.21250073,2.5625 9.65650073,4.0065 9.65650073,5.7805 L9.65650073,7.0265 C9.65650073,7.9765 9.23150073,8.8745 8.48950073,9.4885 C8.30950073,9.6385 8.20550073,9.8595 8.20550073,10.0935 L8.20550073,10.5185 C8.20550073,10.5635 8.23350073,10.6045 8.27650073,10.6195 L11.2485007,11.6795 C11.7145007,11.8455 12.0945007,12.1825 12.3165007,12.6265 C12.3385007,12.6735 12.3565007,12.7225 12.3665007,12.7725 L12.8635007,15.1915 C12.9305007,15.5175 12.7215007,15.8345 12.3965007,15.9005 C12.3565007,15.9085 12.3155007,15.9135 12.2755007,15.9135 M15.3995007,14.351 C15.1205007,14.351 14.8705007,14.155 14.8125007,13.872 L14.3335007,11.541 C14.2495007,11.405 14.1215007,11.302 13.9685007,11.247 L10.9985007,10.188 C10.4795007,10.004 10.1295007,9.509 10.1295007,8.956 L10.1295007,8.532 C10.1295007,7.939 10.3915007,7.382 10.8475007,7.003 C11.3135007,6.618 11.5805007,6.057 11.5805007,5.464 L11.5805007,4.219 C11.5805007,3.106 10.6745007,2.201 9.56250073,2.201 C9.33150073,2.201 9.10550073,2.24 8.88950073,2.316 C8.57550073,2.428 8.23350073,2.265 8.12250073,1.953 C8.01150073,1.641 8.17350073,1.297 8.48550073,1.186 C8.83150073,1.063 9.19350073,1 9.56250073,1 C11.3365007,1 12.7805007,2.444 12.7805007,4.219 L12.7805007,5.464 C12.7805007,6.415 12.3555007,7.313 11.6135007,7.927 C11.4335007,8.077 11.3295007,8.297 11.3295007,8.532 L11.3295007,8.956 C11.3295007,9.002 11.3575007,9.042 11.4005007,9.058 L14.3725007,10.118 C14.8395007,10.284 15.2185007,10.621 15.4405007,11.064 C15.4625007,11.111 15.4805007,11.16 15.4905007,11.211 L15.9875007,13.629 C16.0545007,13.955 15.8455007,14.272 15.5205007,14.338 C15.4805007,14.346 15.4395007,14.351 15.3995007,14.351" id="Shape"></path>
            </g>
        </g>
    </g>
</svg>

<svg xmlns="http://www.w3.org/2000/svg" viewBox="0 0 16 16">
    <path d="M12.276 15.914a.6.6 0 0 1-.587-.48l-.48-2.332a.708.708 0 0 0-.363-.293l-2.971-1.058a1.311 1.311 0 0 1-.87-1.232v-.425c0-.593.263-1.15.72-1.53.465-.384.732-.946.732-1.537V5.78a2.02 2.02 0 0 0-4.036 0v1.247c0 .595.268 1.157.736 1.542.454.374.715.927.715 1.515v.434c0 .551-.35 1.046-.868 1.232L2.03 12.81a.712.712 0 0 0-.364.292l-.478 2.332a.601.601 0 0 1-1.176-.242l.497-2.42a.65.65 0 0 1 .05-.146 1.896 1.896 0 0 1 1.069-.946l2.97-1.06a.11.11 0 0 0 .073-.102v-.434a.76.76 0 0 0-.28-.588 3.198 3.198 0 0 1-1.172-2.47V5.782a3.222 3.222 0 0 1 6.437 0v1.246c0 .95-.425 1.847-1.167 2.462a.787.787 0 0 0-.284.604v.425c0 .045.028.086.07.101l2.973 1.06c.466.166.846.503 1.068.947.022.048.04.097.05.147l.497 2.418a.599.599 0 0 1-.588.723M15.4 14.35a.6.6 0 0 1-.587-.479l-.48-2.331a.708.708 0 0 0-.364-.294l-2.97-1.059a1.31 1.31 0 0 1-.87-1.232v-.424c0-.593.263-1.15.719-1.529.466-.385.733-.946.733-1.539V4.219A2.02 2.02 0 0 0 8.89 2.316a.599.599 0 1 1-.404-1.13 3.222 3.222 0 0 1 4.295 3.033v1.245c0 .951-.425 1.849-1.167 2.463a.785.785 0 0 0-.284.605v.424c0 .046.028.086.07.102l2.973 1.06c.467.166.846.503 1.068.946.022.047.04.096.05.147l.497 2.418a.599.599 0 0 1-.588.722"/>
</svg>
